newicons/meb.svg

<?xml version="1.0" encoding="UTF-8"?><svg id="a" xmlns="http://www.w3.org/2000/svg" viewBox="0 0 48 48"><defs><style>.d{fill:none;stroke:#fff;stroke-linecap:round;stroke-linejoin:round;}</style></defs><path id="b" class="d" d="M23.4163,41.3532c-1.0549-.266-2.1679-.427-3.5618-.073M24.4172,39.6003c-1.9099-.52-3.8928-.822-6.2406-.06M25.4162,36.5865c-5.2347-.52-9.5534.175-11.8153.8419-1.5459.456-2.1929-1.1499-2.6638-2.2889l-5.2787-12.7522c-.465-1.1239.201-2.0859.625-2.4169.288-.225.588-.397.8969-.527M36.4275,36.6845c.646-.8759,1.4019-1.7079,2.7028-2.3209M34.5406,35.9686c1.1429-1.6149,2.4819-3.1098,4.7787-4.0148M31.8528,34.2777c3.7098-3.7298,7.4856-5.9397,9.6544-6.8626,1.4839-.632.9619-2.2829.602-3.4608l-4.0338-13.1992c-.355-1.1629-1.4809-1.4809-2.0199-1.4669-.3476.0095-.6925.0643-1.0259.163"/><path id="c" class="d" d="M22.2845,17.2294c1.3221-4.6261,4.6374-8.8245,7.784-10.312,2.0293-.877,2.7102.5059,3.2762,2.3118l4.1768,13.3192c.747,2.3809.669,2.6628-1.0619,4.0898-3.6818,3.0368-4.5077,4.7617-7.6086,9.3964l-6.8596-19.118h0c-4.0548-2.5899-9.3195-3.5389-12.6273-2.5769-2.0899.608-1.7349,2.1079-1.0239,3.8618l5.2437,12.9362c.9379,2.3119,1.1779,2.4799,3.4208,2.4819,4.7717.002,6.5066.808,11.8463,2.4149"/></svg>

<?xml version="1.0" encoding="UTF-8" standalone="no"?>
<svg
   id="a"
   viewBox="0 0 48 48"
   version="1.1"
   sodipodi:docname="meb.svg"
   inkscape:version="1.3.2 (091e20ef0f, 2023-11-25)"
   xmlns:inkscape="http://www.inkscape.org/namespaces/inkscape"
   xmlns:sodipodi="http://sodipodi.sourceforge.net/DTD/sodipodi-0.dtd"
   xmlns="http://www.w3.org/2000/svg"
   xmlns:svg="http://www.w3.org/2000/svg">
  <sodipodi:namedview
     id="namedview1"
     pagecolor="#ffffff"
     bordercolor="#000000"
     borderopacity="0.25"
     inkscape:showpageshadow="2"
     inkscape:pageopacity="0.0"
     inkscape:pagecheckerboard="0"
     inkscape:deskcolor="#d1d1d1"
     inkscape:zoom="17.8125"
     inkscape:cx="23.97193"
     inkscape:cy="24"
     inkscape:window-width="1918"
     inkscape:window-height="1053"
     inkscape:window-x="0"
     inkscape:window-y="0"
     inkscape:window-maximized="1"
     inkscape:current-layer="a" />
  <defs
     id="defs1">
    <style
       id="style1">.b{fill:none;stroke:#fff;stroke-linecap:round;stroke-linejoin:round;}</style>
  </defs>
  <path
     class="b"
     d="m 23.4163,41.3574 c -1.0549,-0.266 -2.1679,-0.427 -3.5618,-0.073 m 4.5627,-1.6799 c -1.9099,-0.52 -3.8928,-0.822 -6.2406,-0.06 m 7.2396,-2.9538 c -5.2347,-0.52 -9.5534,0.175 -11.8153,0.8419 -1.5459,0.456 -2.1929,-1.1499 -2.6638,-2.2889 L 5.6584,22.3915 c -0.465,-1.1239 0.201,-2.0859 0.625,-2.4169 0.288,-0.225 0.588,-0.397 0.8969,-0.527 m 29.2472,17.2411 c 0.646,-0.8759 1.4019,-1.7079 2.7028,-2.3209 m -4.5897,1.605 c 1.1429,-1.6149 2.4819,-3.1098 4.7787,-4.0148 m -7.4665,2.3239 c 3.7098,-3.7298 7.4856,-5.9397 9.6544,-6.8626 1.4839,-0.632 0.9619,-2.2829 0.602,-3.4608 L 38.0754,10.7593 C 37.7204,9.5964 36.5945,9.2784 36.0555,9.2924 35.7079,9.3019 35.363,9.3567 35.0296,9.4554"
     id="path1"
     style="stroke:#ffffff;stroke-opacity:1"
     sodipodi:nodetypes="cccccccccccccccccccc" />
  <path
     d="M 22.284467,17.233642 C 23.606527,12.607561 26.921864,8.4091993 30.068497,6.9216588 32.0978,6.0447 32.7787,7.4276 33.3447,9.2335 l 4.1768,13.3192 c 0.747,2.3809 0.669,2.6628 -1.0619,4.0898 -3.6818,3.0368 -4.5077,4.7617 -7.6086,9.3964 l -6.8596,-19.1179 0,-10e-5 C 17.9366,14.3311 12.6719,13.3821 9.3641,14.3441 7.2742,14.9521 7.6292,16.452 8.3402,18.2059 l 5.2437,12.9362 c 0.9379,2.3119 1.1779,2.4799 3.4208,2.4819 4.7717,0.002 6.5066,0.808 11.8463,2.4149"
     style="fill:none;stroke:#ffffff;stroke-linecap:round;stroke-linejoin:round;stroke-opacity:1"
     id="path1-7"
     sodipodi:nodetypes="ccccccccccccc" />
</svg>
